X: 1012
T: Watson's Blues
C:Bill Monroe
B: jims roots
M:4/4
L:1/8
Q: 1/4=100
K:E
V:1 
|:SB2c2d2 |"E"[e6g6]B2 | "D"[=d3f3]c =d^de |"E" B4-BGFE | "A"CA-A3 A ce |
"E"B4-B zG FE || [1 B,3E GBcB | "B"(F8|F2):|[2,3 "B"B,3E DEFD | "E" E6 D2 | =D8||
"A"[A4(A4] A)Ace | (=g4 g)fec | "E"[e4(e4] e)cBc |
BcBB =GFEC | B,bgf ecB^G | E3E GBcB | "B"(F8| !D.C.!F2) ||
V:4 "B"B,3E DEFD | "E" E6|
% abcbook-tune_id 6298c29782ef1fba096adfca


% abcbook-boost 0
% abcbook-tablature 
% abcbook-transpose 
% abcbook-lastupdated 1654178456709
% abcbook-soundfonts 
% abcbook-repeats 1


